src/xmb/monochrome/Seta - Aleck64.svg

<svg xmlns="http://www.w3.org/2000/svg" xml:space="preserve" viewBox="0 0 64 64"><path d="M22 60h20V36H22zm5.95-20.2c0-1 .8-1.9 1.9-1.9h4.3c1 0 1.9.8 1.9 1.9v4.3c0 1-.8 1.9-1.9 1.9h-4.3c-1 0-1.9-.8-1.9-1.9z" style="fill:#fff"/><path d="M29.85 45.1h4.3c.5 0 .9-.4.9-.9v-4.3c0-.5-.4-.9-.9-.9h-4.3c-.5 0-.9.4-.9.9v4.3c0 .5.4.9.9.9m3.2-5.1h1v1h-1zm0 3h1v1h-1zm-3-3h1v1h-1zm0 3h1v1h-1zM21 5h22v4H21zm22 5H21l2 7v10l-2 4v3c0 .5.5 1 1 1h20c.5 0 1-.5 1-1v-3l-2-4V17zm-18 2h14v11H25zm-.08 16.96s-.16.41-.4.41-.41-.41-.41-.41c-.24-.41-.4-1.97-.4-2.29 0-.49.32-.81.81-.81s.81.32.81.81c0 .32-.16 1.89-.41 2.29m1.15 1.07c-.37 0-.68-.2-.68-.45s.3-.45.68-.45c.37 0 .68.2.68.45s-.31.45-.68.45m.55-1.3c-.37 0-.68-.2-.68-.45s.3-.45.68-.45c.37 0 .68.2.68.45s-.31.45-.68.45m1.36 1.3c-.37 0-.68-.2-.68-.45s.3-.45.68-.45.68.2.68.45-.31.45-.68.45m.55-1.3c-.37 0-.68-.2-.68-.45s.3-.45.68-.45c.37 0 .68.2.68.45s-.31.45-.68.45m1.36 1.3c-.37 0-.68-.2-.68-.45s.3-.45.68-.45c.37 0 .68.2.68.45s-.3.45-.68.45m.55-1.3c-.37 0-.68-.2-.68-.45s.3-.45.68-.45.68.2.68.45-.3.45-.68.45m3.65.23s-.16.41-.41.41c-.24 0-.4-.41-.4-.41-.24-.41-.41-1.97-.41-2.29 0-.49.32-.81.81-.81s.81.32.81.81c.01.32-.15 1.89-.4 2.29m1.15 1.07c-.37 0-.68-.2-.68-.45s.3-.45.68-.45c.37 0 .68.2.68.45s-.31.45-.68.45m.55-1.3c-.37 0-.68-.2-.68-.45s.3-.45.68-.45c.37 0 .68.2.68.45s-.31.45-.68.45m1.36 1.3c-.37 0-.68-.2-.68-.45s.3-.45.68-.45c.37 0 .68.2.68.45s-.3.45-.68.45m.55-1.3c-.37 0-.68-.2-.68-.45s.3-.45.68-.45c.37 0 .68.2.68.45s-.3.45-.68.45m1.36 1.3c-.37 0-.68-.2-.68-.45s.3-.45.68-.45c.37 0 .68.2.68.45s-.3.45-.68.45m.55-1.3c-.37 0-.68-.2-.68-.45s.3-.45.68-.45c.37 0 .68.2.68.45s-.3.45-.68.45" style="fill:#fff"/></svg>

<?xml version="1.0" encoding="utf-8"?>
<svg version="1.1"
	 id="svg4618" xmlns:rdf="http://www.w3.org/1999/02/22-rdf-syntax-ns#" xmlns:cc="http://creativecommons.org/ns#" xmlns:dc="http://purl.org/dc/elements/1.1/" xmlns:svg="http://www.w3.org/2000/svg" xmlns:sodipodi="http://sodipodi.sourceforge.net/DTD/sodipodi-0.dtd" xmlns:inkscape="http://www.inkscape.org/namespaces/inkscape"
	 xmlns="http://www.w3.org/2000/svg" xmlns:xlink="http://www.w3.org/1999/xlink" x="0px" y="0px" viewBox="0 0 64 64"
	 style="enable-background:new 0 0 64 64;" xml:space="preserve">
<sodipodi:namedview  bordercolor="#666666" borderopacity="1" gridtolerance="10" guidetolerance="10" id="namedview4620" inkscape:current-layer="svg4618" inkscape:cx="32" inkscape:cy="32" inkscape:pageopacity="0" inkscape:pageshadow="2" inkscape:window-height="1005" inkscape:window-maximized="1" inkscape:window-width="1676" inkscape:window-x="4" inkscape:window-y="1" inkscape:zoom="13.46875" objecttolerance="10" pagecolor="#808080" showgrid="false">
	</sodipodi:namedview>
<g>
	<path style="fill:#FFFFFF;" d="M22,60h20V36H22V60z M27.95,39.8c0-1,0.8-1.9,1.9-1.9h4.3c1,0,1.9,0.8,1.9,1.9v4.3
		c0,1-0.8,1.9-1.9,1.9h-4.3c-1,0-1.9-0.8-1.9-1.9V39.8z"/>
	<path style="fill:#FFFFFF;" d="M29.85,45.1h4.3c0.5,0,0.9-0.4,0.9-0.9v-4.3c0-0.5-0.4-0.9-0.9-0.9h-4.3c-0.5,0-0.9,0.4-0.9,0.9v4.3
		C28.95,44.7,29.35,45.1,29.85,45.1z M33.05,40h1v1h-1V40z M33.05,43h1v1h-1V43z M30.05,40h1v1h-1V40z M30.05,43h1v1h-1V43z"/>
	<rect x="21" y="5" style="fill:#FFFFFF;" width="22" height="4"/>
	<path style="fill:#FFFFFF;" d="M43,10H21l2,7v10l-2,4v3c0,0.5,0.5,1,1,1h20c0.5,0,1-0.5,1-1v-3l-2-4V17L43,10z M25,12h14v11H25V12z
		 M24.92,28.96c0,0-0.16,0.41-0.4,0.41c-0.24,0-0.41-0.41-0.41-0.41c-0.24-0.41-0.4-1.97-0.4-2.29c0-0.49,0.32-0.81,0.81-0.81
		c0.49,0,0.81,0.32,0.81,0.81C25.33,26.99,25.17,28.56,24.92,28.96z M26.07,30.03c-0.37,0-0.68-0.2-0.68-0.45
		c0-0.25,0.3-0.45,0.68-0.45c0.37,0,0.68,0.2,0.68,0.45C26.75,29.83,26.44,30.03,26.07,30.03z M26.62,28.73
		c-0.37,0-0.68-0.2-0.68-0.45c0-0.25,0.3-0.45,0.68-0.45c0.37,0,0.68,0.2,0.68,0.45C27.3,28.53,26.99,28.73,26.62,28.73z
		 M27.98,30.03c-0.37,0-0.68-0.2-0.68-0.45c0-0.25,0.3-0.45,0.68-0.45s0.68,0.2,0.68,0.45C28.66,29.83,28.35,30.03,27.98,30.03z
		 M28.53,28.73c-0.37,0-0.68-0.2-0.68-0.45c0-0.25,0.3-0.45,0.68-0.45c0.37,0,0.68,0.2,0.68,0.45
		C29.21,28.53,28.9,28.73,28.53,28.73z M29.89,30.03c-0.37,0-0.68-0.2-0.68-0.45c0-0.25,0.3-0.45,0.68-0.45
		c0.37,0,0.68,0.2,0.68,0.45C30.57,29.83,30.27,30.03,29.89,30.03z M30.44,28.73c-0.37,0-0.68-0.2-0.68-0.45
		c0-0.25,0.3-0.45,0.68-0.45s0.68,0.2,0.68,0.45C31.12,28.53,30.82,28.73,30.44,28.73z M34.09,28.96c0,0-0.16,0.41-0.41,0.41
		c-0.24,0-0.4-0.41-0.4-0.41c-0.24-0.41-0.41-1.97-0.41-2.29c0-0.49,0.32-0.81,0.81-0.81c0.49,0,0.81,0.32,0.81,0.81
		C34.5,26.99,34.34,28.56,34.09,28.96z M35.24,30.03c-0.37,0-0.68-0.2-0.68-0.45c0-0.25,0.3-0.45,0.68-0.45
		c0.37,0,0.68,0.2,0.68,0.45C35.92,29.83,35.61,30.03,35.24,30.03z M35.79,28.73c-0.37,0-0.68-0.2-0.68-0.45
		c0-0.25,0.3-0.45,0.68-0.45c0.37,0,0.68,0.2,0.68,0.45C36.47,28.53,36.16,28.73,35.79,28.73z M37.15,30.03
		c-0.37,0-0.68-0.2-0.68-0.45c0-0.25,0.3-0.45,0.68-0.45c0.37,0,0.68,0.2,0.68,0.45C37.83,29.83,37.53,30.03,37.15,30.03z
		 M37.7,28.73c-0.37,0-0.68-0.2-0.68-0.45c0-0.25,0.3-0.45,0.68-0.45c0.37,0,0.68,0.2,0.68,0.45C38.38,28.53,38.08,28.73,37.7,28.73
		z M39.06,30.03c-0.37,0-0.68-0.2-0.68-0.45c0-0.25,0.3-0.45,0.68-0.45c0.37,0,0.68,0.2,0.68,0.45
		C39.74,29.83,39.44,30.03,39.06,30.03z M39.61,28.73c-0.37,0-0.68-0.2-0.68-0.45c0-0.25,0.3-0.45,0.68-0.45
		c0.37,0,0.68,0.2,0.68,0.45C40.29,28.53,39.99,28.73,39.61,28.73z"/>
</g>
</svg>
